src/components/00-materials/images-raw/Safety Belt.svg

<svg width="96" height="96" viewBox="0 0 96 96" fill="none" xmlns="http://www.w3.org/2000/svg">
<path d="M48.13 21.5304C45.04 21.5304 42.06 19.1604 40.86 16.3604C38.92 20.3604 36.58 23.5904 30.69 23.5904H24.81V31.8604C24.81 38.7004 29.09 44.2504 36.58 44.2504C44.07 44.2504 48.35 38.7004 48.35 31.8604V21.5304H48.13Z" stroke="#00008F" stroke-width="2" stroke-linecap="round" stroke-linejoin="round"/>
<path d="M48.35 32.8901C50.0397 31.7576 51.4166 30.2174 52.3535 28.4118C53.2903 26.6063 53.7569 24.5937 53.71 22.5601V16.3601C53.6996 15.8072 53.5804 15.2618 53.3591 14.755C53.1379 14.2482 52.8189 13.7899 52.4206 13.4064C52.0222 13.0229 51.5521 12.7216 51.0373 12.5198C50.5224 12.3179 49.9729 12.2195 49.42 12.2301C47.9984 9.96818 46.015 8.11323 43.663 6.84613C41.3111 5.57902 38.6709 4.94301 36 5.00011H34.73C32.7593 4.96434 30.8008 5.31733 28.9665 6.03891C27.1323 6.76048 25.4583 7.83648 24.0401 9.2054C22.622 10.5743 21.4875 12.2093 20.7016 14.0169C19.9158 15.8246 19.4938 17.7693 19.46 19.7401V22.2801C19.46 26.2801 21.6 30.8301 24.81 32.8901M29.09 41.7701V47.2501L19.79 48.7201C12.79 49.7201 7.67999 55.2901 7.67999 61.8401V66.6701C7.71119 67.6624 8.08962 68.6123 8.74931 69.3543C9.40901 70.0962 10.3081 70.5831 11.29 70.7301L23.14 72.8401M44.07 41.7701V47.2501L51.87 48.5001M44.62 73.6301C46.56 73.4301 48.11 73.1901 50.02 72.8401L61.87 70.7301C62.8527 70.585 63.7529 70.0986 64.4129 69.3563C65.073 68.6139 65.4507 67.663 65.48 66.6701V61.8401C65.4698 60.0605 65.0883 58.3026 64.3599 56.6788C63.6316 55.0551 62.5723 53.6012 61.25 52.4101" stroke="#00008F" stroke-width="2" stroke-linecap="round" stroke-linejoin="round"/>
<path d="M26.19 47.7L34.94 57.7C35.1387 57.9477 35.386 58.1521 35.6666 58.3007C35.9472 58.4494 36.2552 58.5391 36.5717 58.5644C36.8883 58.5897 37.2066 58.55 37.5073 58.4478C37.8079 58.3456 38.0845 58.183 38.32 57.97M48.996 47.312L59.758 58.074L49.278 68.554L38.516 57.792L48.996 47.312Z" stroke="#00008F" stroke-width="2" stroke-linecap="round" stroke-linejoin="round"/>
<path d="M81.907 18.7539L88.313 25.1609L57.575 55.8979L51.169 49.4919L81.907 18.7539ZM21.92 78.7399L28.326 85.1459L22.472 90.9999L16.065 84.5929L21.92 78.7399ZM49.088 54.3899L52.673 57.9749L49.179 61.4679L45.594 57.8829L49.088 54.3899Z" stroke="#00008F" stroke-width="2" stroke-linecap="round" stroke-linejoin="round"/>
<path d="M34.16 62.6802L44.93 73.4402L34.43 83.9402L32.18 89.0402L17.91 74.7702L23.67 73.1702L34.16 62.6802Z" stroke="#00008F" stroke-width="2" stroke-linecap="round" stroke-linejoin="round"/>
<path d="M34.165 77.024L30.58 73.44L34.165 69.855L37.75 73.44L34.165 77.024Z" stroke="#00008F" stroke-width="2" stroke-linecap="round" stroke-linejoin="round"/>
</svg>

<svg width="96" height="96" viewBox="0 0 96 96" fill="none" xmlns="http://www.w3.org/2000/svg"><path d="M48.13 21.53c-3.09 0-6.07-2.37-7.27-5.17-1.94 4-4.28 7.23-10.17 7.23h-5.88v8.27c0 6.84 4.28 12.39 11.77 12.39 7.49 0 11.77-5.55 11.77-12.39V21.53h-.22z" stroke="#00008F" stroke-width="2" stroke-linecap="round" stroke-linejoin="round"/><path d="M48.35 32.89a12.1 12.1 0 005.36-10.33v-6.2a4.209 4.209 0 00-4.29-4.13A15.46 15.46 0 0036 5h-1.27a15 15 0 00-15.27 14.74v2.54c0 4 2.14 8.55 5.35 10.61m4.28 8.88v5.48l-9.3 1.47c-7 1-12.11 6.57-12.11 13.12v4.83a4.24 4.24 0 003.61 4.06l11.85 2.11m20.93-31.07v5.48l7.8 1.25m-7.25 25.13c1.94-.2 3.49-.44 5.4-.79l11.85-2.11a4.23 4.23 0 003.61-4.06v-4.83a12.79 12.79 0 00-4.23-9.43" stroke="#00008F" stroke-width="2" stroke-linecap="round" stroke-linejoin="round"/><path d="M26.19 47.7l8.75 10a2.329 2.329 0 003.38.27m10.676-10.658l10.762 10.762-10.48 10.48-10.762-10.762 10.48-10.48z" stroke="#00008F" stroke-width="2" stroke-linecap="round" stroke-linejoin="round"/><path d="M81.907 18.754l6.406 6.407-30.738 30.737-6.406-6.406 30.738-30.738zM21.92 78.74l6.406 6.406L22.472 91l-6.407-6.407 5.855-5.853zm27.168-24.35l3.585 3.585-3.494 3.493-3.585-3.585 3.494-3.493z" stroke="#00008F" stroke-width="2" stroke-linecap="round" stroke-linejoin="round"/><path d="M34.16 62.68l10.77 10.76-10.5 10.5-2.25 5.1-14.27-14.27 5.76-1.6 10.49-10.49z" stroke="#00008F" stroke-width="2" stroke-linecap="round" stroke-linejoin="round"/><path d="M34.165 77.024L30.58 73.44l3.585-3.585 3.585 3.585-3.585 3.584z" stroke="#00008F" stroke-width="2" stroke-linecap="round" stroke-linejoin="round"/></svg>
